ru/_assets/tutorials/bastion-yc.svg

<svg xmlns="http://www.w3.org/2000/svg" width="730" height="400" fill="none"><g clip-path="url(#a)"><g filter="url(#b)"><rect width="654" height="371" x="3" y="19" fill="#fff" rx="10"/></g><g filter="url(#c)"><rect width="634" height="301" x="13" y="79" fill="#fff" rx="10"/></g><path fill="#4E496B" d="m170 285-5.774 10h11.548L170 285Zm-1 9v22h2v-22h-2Zm-7 29H73v2h89v-2Zm7-7a7 7 0 0 1-7 7v2a9 9 0 0 0 9-9h-2ZM291 324l-10 5.774v-11.548L291 324Zm-109-39v31h-2v-31h2Zm7 38h93v2h-93v-2Zm-7-7a7 7 0 0 0 7 7v2a9 9 0 0 1-9-9h2ZM480 285l-5.774 10h11.548L480 285Zm-1 9v22h2v-22h-2Zm-7 29H370v2h102v-2Zm7-7a7 7 0 0 1-7 7v2a9 9 0 0 0 9-9h-2ZM676 324l-10 5.774v-11.548L676 324Zm-184-39v31h-2v-31h2Zm7 38h168v2H499v-2Zm-7-7a7 7 0 0 0 7 7v2a9 9 0 0 1-9-9h2Z"/><g fill-rule="evenodd" clip-path="url(#d)" clip-rule="evenodd"><path fill="#5282FF" d="M706 302c12.143 0 22 9.856 22 22s-9.857 22-22 22-22-9.856-22-22 9.857-22 22-22Z"/><path fill="#fff" d="M697.145 333.529c-.4-.173-.645-.332-.74-.735-.123-.966.117-1.691.74-2.198 1.999-1.312 4.675-1.883 6.04-2.779.462-.377.44-.882.399-1.238-.041-.347-.228-.701-.536-1.119-1.156-1.338-2.214-3.31-2.214-7.333 0-1.869.833-3.475 2.118-4.348.907-.618 2.131-.783 3.048-.783.917 0 2.14.165 3.048.783 1.285.873 2.118 2.479 2.118 4.348 0 4.023-1.057 5.995-2.214 7.333-.308.416-.495.772-.536 1.119-.041.356-.063.861.399 1.238 1.365.898 4.041 1.467 6.04 2.779.623.509.862 1.232.74 2.198-.096.403-.34.564-.74.735-2.203.876-5.566 1.467-8.855 1.467-3.289 0-6.652-.591-8.855-1.467Z"/></g><rect width="300" height="144" x="25" y="141" fill="#DDF2E1" rx="5"/><rect width="300" height="144" x="335" y="141" fill="#DAEEF9" rx="10"/><g fill-rule="evenodd" clip-path="url(#e)" clip-rule="evenodd"><path fill="#5282FF" d="M46 302c12.143 0 22 9.856 22 22s-9.857 22-22 22-22-9.856-22-22 9.857-22 22-22Z"/><path fill="#fff" d="m37.75 331.111-.003-3.155c.696.549 1.56.945 2.395 1.226 1.615.551 3.665.861 5.858.861 2.193 0 4.243-.31 5.856-.861.835-.281 1.701-.677 2.394-1.226v3.155c0 1.766-3.696 3.2-8.25 3.2s-8.25-1.434-8.25-3.2Zm0-5.689-.003-3.155c.696.548 1.56.944 2.395 1.225 1.615.55 3.665.862 5.858.862 2.193 0 4.243-.312 5.856-.862.835-.281 1.701-.677 2.394-1.225v3.153c0 1.767-3.696 3.2-8.25 3.2s-8.25-1.433-8.25-3.2v.002Zm0-5.691-.003-3.155c.01.01.022.019.033.027.369-1.632 3.91-2.917 8.22-2.917 4.306 0 7.847 1.285 8.217 2.916l.033-.026v3.155c0 1.765-3.696 3.2-8.25 3.2s-8.25-1.435-8.25-3.2Z"/></g><text xml:space="preserve" fill="#000" fill-opacity=".85" font-size="10" letter-spacing="0em" style="white-space:pre"><tspan x="28.49" y="364.42">test-vm</tspan></text><text xml:space="preserve" fill="#000" fill-opacity=".85" font-size="10" letter-spacing="0em" style="white-space:pre"><tspan x="91.762" y="338.42">172.16.16.12</tspan></text><text xml:space="preserve" fill="#000" fill-opacity=".85" font-size="10" letter-spacing="0em" style="white-space:pre"><tspan x="204.013" y="338.42">172.16.16.254</tspan></text><text xml:space="preserve" fill="#000" fill-opacity=".85" font-size="10" letter-spacing="0em" style="white-space:pre"><tspan x="395.42" y="338.42">172.16.17.12</tspan></text><text xml:space="preserve" fill="#000" fill-opacity=".85" font-size="10" letter-spacing="0em" style="white-space:pre"><tspan x="517.013" y="322.92">
</tspan><tspan x="517.013" y="337.92">51.250.110.18</tspan></text><text xml:space="preserve" fill="#000" fill-opacity=".85" font-size="10" letter-spacing="0em" style="white-space:pre"><tspan x="517.013" y="318.42">Публичный IP</tspan></text><text xml:space="preserve" fill="#000" fill-opacity=".85" font-size="12" letter-spacing="0em" style="white-space:pre"><tspan x="104.328" y="175.604">bastion-internal-segment</tspan></text><text xml:space="preserve" fill="#000" fill-opacity=".85" font-size="12" letter-spacing="0em" style="white-space:pre"><tspan x="313.705" y="113.104">VPC</tspan></text><text xml:space="preserve" fill="#000" fill-opacity=".85" font-size="12" letter-spacing="0em" style="white-space:pre"><tspan x="305.256" y="53.104">ОБЛАКО</tspan></text><text xml:space="preserve" fill="#000" fill-opacity=".85" font-size="12" letter-spacing="0em" style="white-space:pre"><tspan x="412.898" y="175.604">bastion-external-segment</tspan></text><g fill-rule="evenodd" clip-path="url(#f)" clip-rule="evenodd"><path fill="#5282FF" d="M330 302c12.143 0 22 9.856 22 22s-9.857 22-22 22-22-9.856-22-22 9.857-22 22-22Z"/><path fill="#fff" d="m321.75 331.111-.003-3.155c.696.549 1.561.945 2.396 1.226 1.614.551 3.664.861 5.857.861s4.243-.31 5.856-.861c.835-.281 1.701-.677 2.394-1.226v3.155c0 1.766-3.696 3.2-8.25 3.2s-8.25-1.434-8.25-3.2Zm0-5.689-.003-3.155c.696.548 1.561.944 2.396 1.225 1.614.55 3.664.862 5.857.862s4.243-.312 5.856-.862c.835-.281 1.701-.677 2.394-1.225v3.153c0 1.767-3.696 3.2-8.25 3.2s-8.25-1.433-8.25-3.2v.002Zm0-5.691-.003-3.155.033.027c.369-1.632 3.911-2.917 8.22-2.917 4.307 0 7.847 1.285 8.217 2.916l.033-.026v3.155c0 1.765-3.696 3.2-8.25 3.2s-8.25-1.435-8.25-3.2Z"/></g><text xml:space="preserve" fill="#000" fill-opacity=".85" font-size="10" letter-spacing="0em" style="white-space:pre"><tspan x="301.416" y="364.42">bastion-host</tspan></text><rect width="44" height="44" x="41" y="210" fill="#5282FF" rx="22"/><path fill="#fff" d="M72.565 221.478v13.546c0 2.212-1.347 4.116-3.31 5.115L63 243.478l-6.254-3.338c-1.964-1-3.311-2.904-3.311-5.116v-13.546h19.13Z"/><text xml:space="preserve" fill="#000" fill-opacity=".85" font-size="10" letter-spacing="0em" style="white-space:pre"><tspan x="100" y="227.92">internal-bastion-sg
</tspan></text><text xml:space="preserve" fill="#000" fill-opacity=".85" font-size="10" letter-spacing="0em" style="white-space:pre"><tspan x="100" y="212.92">Группа безопасности
</tspan><tspan x="100" y="242.92">Исходящий: TCP, порт 22, в эту же ГБ
</tspan><tspan x="100" y="257.92">Входящий: TCP, порт 22, от 172.16.16.254/32</tspan></text><rect width="44" height="44" x="351" y="210" fill="#5282FF" rx="22"/><path fill="#fff" d="M382.565 221.478v13.546c0 2.212-1.347 4.116-3.311 5.115L373 243.478l-6.254-3.338c-1.964-1-3.311-2.904-3.311-5.116v-13.546h19.13Z"/><text xml:space="preserve" fill="#000" fill-opacity=".85" font-size="10" letter-spacing="0em" style="white-space:pre"><tspan x="410" y="227.92">secure-bastion-sg
</tspan></text><text xml:space="preserve" fill="#000" fill-opacity=".85" font-size="10" letter-spacing="0em" style="white-space:pre"><tspan x="410" y="212.92">Группа безопасности
</tspan><tspan x="410" y="242.92">Входящий: TCP, порт 22, от 0.0.0.0/0
</tspan></text><path fill="#18123D" d="m459 334.5 10 5.774v-11.548l-10 5.774Zm53 0-10-5.774v11.548l10-5.774Zm-47.321 1h3.785v-2h-3.785v2Zm7.571 0h3.786v-2h-3.786v2Zm7.571 0h3.786v-2h-3.786v2Zm7.572 0h3.786v-2h-3.786v2Zm7.571 0h3.786v-2h-3.786v2Zm7.572 0h3.785v-2h-3.785v2Z" opacity=".5"/></g><defs><clipPath id="a"><path fill="#fff" d="M0 0h730v400H0z"/></clipPath><clipPath id="d"><path fill="#fff" d="M684 302h44v44h-44z"/></clipPath><clipPath id="e"><path fill="#fff" d="M24 302h44v44H24z"/></clipPath><clipPath id="f"><path fill="#fff" d="M308 302h44v44h-44z"/></clipPath><filter id="b" width="670" height="387" x="-5" y="11" color-interpolation-filters="sRGB" filterUnits="userSpaceOnUse"><feFlood flood-opacity="0" result="BackgroundImageFix"/><feColorMatrix in="SourceAlpha" result="hardAlpha" values="0 0 0 0 0 0 0 0 0 0 0 0 0 0 0 0 0 0 127 0"/><feOffset/><feGaussianBlur stdDeviation="4"/><feColorMatrix values="0 0 0 0 0.321569 0 0 0 0 0.509804 0 0 0 0 1 0 0 0 0.2 0"/><feBlend in2="BackgroundImageFix" result="effect1_dropShadow_5_476"/><feBlend in="SourceGraphic" in2="effect1_dropShadow_5_476" result="shape"/></filter><filter id="c" width="650" height="317" x="5" y="71" color-interpolation-filters="sRGB" filterUnits="userSpaceOnUse"><feFlood flood-opacity="0" result="BackgroundImageFix"/><feColorMatrix in="SourceAlpha" result="hardAlpha" values="0 0 0 0 0 0 0 0 0 0 0 0 0 0 0 0 0 0 127 0"/><feOffset/><feGaussianBlur stdDeviation="4"/><feColorMatrix values="0 0 0 0 0.321569 0 0 0 0 0.509804 0 0 0 0 1 0 0 0 0.2 0"/><feBlend in2="BackgroundImageFix" result="effect1_dropShadow_5_476"/><feBlend in="SourceGraphic" in2="effect1_dropShadow_5_476" result="shape"/></filter></defs></svg>

<svg width="730" height="400" viewBox="0 0 730 400" fill="none" xmlns="http://www.w3.org/2000/svg">
<g clip-path="url(#clip0_5_476)">
<g filter="url(#filter0_d_5_476)">
<rect x="3" y="19" width="654" height="371" rx="10" fill="white"/>
</g>
<g filter="url(#filter1_d_5_476)">
<rect x="13" y="79" width="634" height="301" rx="10" fill="white"/>
</g>
<path d="M170 285L164.226 295L175.774 295L170 285ZM169 294L169 316L171 316L171 294L169 294ZM162 323L73 323L73 325L162 325L162 323ZM169 316C169 319.866 165.866 323 162 323L162 325C166.971 325 171 320.971 171 316L169 316Z" fill="#4E496B"/>
<path d="M291 324L281 329.774L281 318.226L291 324ZM182 285L182 316L180 316L180 285L182 285ZM189 323L282 323L282 325L189 325L189 323ZM182 316C182 319.866 185.134 323 189 323L189 325C184.029 325 180 320.971 180 316L182 316Z" fill="#4E496B"/>
<path d="M480 285L474.226 295L485.774 295L480 285ZM479 294L479 316L481 316L481 294L479 294ZM472 323L370 323L370 325L472 325L472 323ZM479 316C479 319.866 475.866 323 472 323L472 325C476.971 325 481 320.971 481 316L479 316Z" fill="#4E496B"/>
<path d="M676 324L666 329.774L666 318.226L676 324ZM492 285L492 316L490 316L490 285L492 285ZM499 323L667 323L667 325L499 325L499 323ZM492 316C492 319.866 495.134 323 499 323L499 325C494.029 325 490 320.971 490 316L492 316Z" fill="#4E496B"/>
<g clip-path="url(#clip1_5_476)">
<path fill-rule="evenodd" clip-rule="evenodd" d="M706 302C718.143 302 728 311.856 728 324C728 336.144 718.143 346 706 346C693.857 346 684 336.144 684 324C684 311.856 693.857 302 706 302Z" fill="#5282FF"/>
<path fill-rule="evenodd" clip-rule="evenodd" d="M697.145 333.529C696.745 333.356 696.5 333.197 696.405 332.794C696.282 331.828 696.522 331.103 697.145 330.596C699.144 329.284 701.82 328.713 703.185 327.817C703.647 327.44 703.625 326.935 703.584 326.579C703.543 326.232 703.356 325.878 703.048 325.46C701.892 324.122 700.834 322.15 700.834 318.127C700.834 316.258 701.667 314.652 702.952 313.779C703.859 313.161 705.083 312.996 706 312.996C706.917 312.996 708.14 313.161 709.048 313.779C710.333 314.652 711.166 316.258 711.166 318.127C711.166 322.15 710.109 324.122 708.952 325.46C708.644 325.876 708.457 326.232 708.416 326.579C708.375 326.935 708.353 327.44 708.815 327.817C710.18 328.715 712.856 329.284 714.855 330.596C715.478 331.105 715.717 331.828 715.595 332.794C715.499 333.197 715.255 333.358 714.855 333.529C712.652 334.405 709.289 334.996 706 334.996C702.711 334.996 699.348 334.405 697.145 333.529V333.529Z" fill="white"/>
</g>
<rect x="25" y="141" width="300" height="144" rx="5" fill="#DDF2E1"/>
<rect x="335" y="141" width="300" height="144" rx="10" fill="#DAEEF9"/>
<g clip-path="url(#clip2_5_476)">
<path fill-rule="evenodd" clip-rule="evenodd" d="M46 302C58.1428 302 68 311.856 68 324C68 336.144 58.1428 346 46 346C33.8572 346 24 336.144 24 324C24 311.856 33.8572 302 46 302Z" fill="#5282FF"/>
<path fill-rule="evenodd" clip-rule="evenodd" d="M37.75 331.111L37.7472 327.956C38.443 328.505 39.3078 328.901 40.1425 329.182C41.7567 329.733 43.8068 330.043 46 330.043C48.1931 330.043 50.2432 329.733 51.8561 329.182C52.6907 328.901 53.557 328.505 54.25 327.956V331.111C54.25 332.877 50.554 334.311 46 334.311C41.446 334.311 37.75 332.877 37.75 331.111ZM37.75 325.422L37.7472 322.267C38.443 322.815 39.3078 323.211 40.1425 323.492C41.7567 324.042 43.8068 324.354 46 324.354C48.1931 324.354 50.2432 324.042 51.8561 323.492C52.6907 323.211 53.557 322.815 54.25 322.267V325.42C54.25 327.187 50.554 328.62 46 328.62C41.446 328.62 37.75 327.187 37.75 325.42V325.422ZM37.75 319.731L37.7472 316.576C37.7578 316.586 37.7688 316.595 37.7802 316.603C38.1487 314.971 41.6907 313.686 46 313.686C50.3065 313.686 53.8471 314.971 54.217 316.602L54.25 316.576V319.731C54.25 321.496 50.554 322.931 46 322.931C41.446 322.931 37.75 321.496 37.75 319.731Z" fill="white"/>
</g>
<text fill="black" fill-opacity="0.85" xml:space="preserve" style="white-space: pre" font-size="10" letter-spacing="0em"><tspan x="28.4902" y="364.42">test-vm</tspan></text>
<text fill="black" fill-opacity="0.85" xml:space="preserve" style="white-space: pre" font-size="10" letter-spacing="0em"><tspan x="91.7617" y="338.42">172.16.16.12</tspan></text>
<text fill="black" fill-opacity="0.85" xml:space="preserve" style="white-space: pre" font-size="10" letter-spacing="0em"><tspan x="204.013" y="338.42">172.16.16.254</tspan></text>
<text fill="black" fill-opacity="0.85" xml:space="preserve" style="white-space: pre" font-size="10" letter-spacing="0em"><tspan x="395.42" y="338.42">172.16.17.12</tspan></text>
<text fill="black" fill-opacity="0.85" xml:space="preserve" style="white-space: pre" font-size="10" letter-spacing="0em"><tspan x="517.013" y="322.92">&#10;</tspan><tspan x="517.013" y="337.92">51.250.110.18</tspan></text>
<text fill="black" fill-opacity="0.85" xml:space="preserve" style="white-space: pre" font-size="10" letter-spacing="0em"><tspan x="517.013" y="318.42">Публичный IP</tspan></text>
<text fill="black" fill-opacity="0.85" xml:space="preserve" style="white-space: pre" font-size="12" letter-spacing="0em"><tspan x="104.328" y="175.604">bastion-internal-segment</tspan></text>
<text fill="black" fill-opacity="0.85" xml:space="preserve" style="white-space: pre" font-size="12" letter-spacing="0em"><tspan x="313.705" y="113.104">VPC</tspan></text>
<text fill="black" fill-opacity="0.85" xml:space="preserve" style="white-space: pre" font-size="12" letter-spacing="0em"><tspan x="305.256" y="53.104">ОБЛАКО</tspan></text>
<text fill="black" fill-opacity="0.85" xml:space="preserve" style="white-space: pre" font-size="12" letter-spacing="0em"><tspan x="412.898" y="175.604">bastion-external-segment</tspan></text>
<g clip-path="url(#clip3_5_476)">
<path fill-rule="evenodd" clip-rule="evenodd" d="M330 302C342.143 302 352 311.856 352 324C352 336.144 342.143 346 330 346C317.857 346 308 336.144 308 324C308 311.856 317.857 302 330 302Z" fill="#5282FF"/>
<path fill-rule="evenodd" clip-rule="evenodd" d="M321.75 331.111L321.747 327.956C322.443 328.505 323.308 328.901 324.143 329.182C325.757 329.733 327.807 330.043 330 330.043C332.193 330.043 334.243 329.733 335.856 329.182C336.691 328.901 337.557 328.505 338.25 327.956V331.111C338.25 332.877 334.554 334.311 330 334.311C325.446 334.311 321.75 332.877 321.75 331.111ZM321.75 325.422L321.747 322.267C322.443 322.815 323.308 323.211 324.143 323.492C325.757 324.042 327.807 324.354 330 324.354C332.193 324.354 334.243 324.042 335.856 323.492C336.691 323.211 337.557 322.815 338.25 322.267V325.42C338.25 327.187 334.554 328.62 330 328.62C325.446 328.62 321.75 327.187 321.75 325.42V325.422ZM321.75 319.731L321.747 316.576C321.758 316.586 321.769 316.595 321.78 316.603C322.149 314.971 325.691 313.686 330 313.686C334.307 313.686 337.847 314.971 338.217 316.602L338.25 316.576V319.731C338.25 321.496 334.554 322.931 330 322.931C325.446 322.931 321.75 321.496 321.75 319.731Z" fill="white"/>
</g>
<text fill="black" fill-opacity="0.85" xml:space="preserve" style="white-space: pre" font-size="10" letter-spacing="0em"><tspan x="301.416" y="364.42">bastion-host</tspan></text>
<rect x="41" y="210" width="44" height="44" rx="22" fill="#5282FF"/>
<path d="M72.5652 221.478V235.024C72.5652 237.236 71.2181 239.14 69.2541 240.139L63 243.478L56.7459 240.14C54.7819 239.14 53.4348 237.236 53.4348 235.024V221.478H72.5652Z" fill="white"/>
<text fill="black" fill-opacity="0.85" xml:space="preserve" style="white-space: pre" font-size="10" letter-spacing="0em"><tspan x="100" y="227.92">internal-bastion-sg&#10;</tspan></text>
<text fill="black" fill-opacity="0.85" xml:space="preserve" style="white-space: pre" font-size="10" letter-spacing="0em"><tspan x="100" y="212.92">Группа безопасности&#10;</tspan><tspan x="100" y="242.92">Исходящий: TCP, порт 22, в эту же ГБ&#10;</tspan><tspan x="100" y="257.92">Входящий: TCP, порт 22, от 172.16.16.254/32</tspan></text>
<rect x="351" y="210" width="44" height="44" rx="22" fill="#5282FF"/>
<path d="M382.565 221.478V235.024C382.565 237.236 381.218 239.14 379.254 240.139L373 243.478L366.746 240.14C364.782 239.14 363.435 237.236 363.435 235.024V221.478H382.565Z" fill="white"/>
<text fill="black" fill-opacity="0.85" xml:space="preserve" style="white-space: pre" font-size="10" letter-spacing="0em"><tspan x="410" y="227.92">secure-bastion-sg&#10;</tspan></text>
<text fill="black" fill-opacity="0.85" xml:space="preserve" style="white-space: pre" font-size="10" letter-spacing="0em"><tspan x="410" y="212.92">Группа безопасности&#10;</tspan><tspan x="410" y="242.92">Входящий: TCP, порт 22, от 0.0.0.0/0&#10;</tspan></text>
<path opacity="0.5" d="M459 334.5L469 340.274V328.726L459 334.5ZM512 334.5L502 328.726V340.274L512 334.5ZM464.679 335.5H468.464V333.5H464.679V335.5ZM472.25 335.5H476.036V333.5H472.25V335.5ZM479.821 335.5H483.607V333.5H479.821V335.5ZM487.393 335.5H491.179V333.5H487.393V335.5ZM494.964 335.5H498.75V333.5H494.964V335.5ZM502.536 335.5H506.321V333.5H502.536V335.5Z" fill="#18123D"/>
</g>
<defs>
<filter id="filter0_d_5_476" x="-5" y="11" width="670" height="387" filterUnits="userSpaceOnUse" color-interpolation-filters="sRGB">
<feFlood flood-opacity="0" result="BackgroundImageFix"/>
<feColorMatrix in="SourceAlpha" type="matrix" values="0 0 0 0 0 0 0 0 0 0 0 0 0 0 0 0 0 0 127 0" result="hardAlpha"/>
<feOffset/>
<feGaussianBlur stdDeviation="4"/>
<feColorMatrix type="matrix" values="0 0 0 0 0.321569 0 0 0 0 0.509804 0 0 0 0 1 0 0 0 0.2 0"/>
<feBlend mode="normal" in2="BackgroundImageFix" result="effect1_dropShadow_5_476"/>
<feBlend mode="normal" in="SourceGraphic" in2="effect1_dropShadow_5_476" result="shape"/>
</filter>
<filter id="filter1_d_5_476" x="5" y="71" width="650" height="317" filterUnits="userSpaceOnUse" color-interpolation-filters="sRGB">
<feFlood flood-opacity="0" result="BackgroundImageFix"/>
<feColorMatrix in="SourceAlpha" type="matrix" values="0 0 0 0 0 0 0 0 0 0 0 0 0 0 0 0 0 0 127 0" result="hardAlpha"/>
<feOffset/>
<feGaussianBlur stdDeviation="4"/>
<feColorMatrix type="matrix" values="0 0 0 0 0.321569 0 0 0 0 0.509804 0 0 0 0 1 0 0 0 0.2 0"/>
<feBlend mode="normal" in2="BackgroundImageFix" result="effect1_dropShadow_5_476"/>
<feBlend mode="normal" in="SourceGraphic" in2="effect1_dropShadow_5_476" result="shape"/>
</filter>
<clipPath id="clip0_5_476">
<rect width="730" height="400" fill="white"/>
</clipPath>
<clipPath id="clip1_5_476">
<rect width="44" height="44" fill="white" transform="translate(684 302)"/>
</clipPath>
<clipPath id="clip2_5_476">
<rect width="44" height="44" fill="white" transform="translate(24 302)"/>
</clipPath>
<clipPath id="clip3_5_476">
<rect width="44" height="44" fill="white" transform="translate(308 302)"/>
</clipPath>
</defs>
</svg>
